!!!!SEGMENT: pl-wn--sd-xvi-qu-273--057_gomolka-mikolaj--smiluj-sie-panie-czasu-mego-niepokoja.krn
!!!cenid: 15xx:262
!!!COM: Gomółka, Mikołaj
!!!COM-rismid: pe30013343
!!!CDT: ~1535->1591/04/30
!!!CNT: Polish
!!!GTL: Melodiae na psalterz polski
!!!OTL: LVII. Smiłuj się, Panie, czasu mego niepokoja,
!!!ONB: PSALM LVII. Miserere mei Deus, miserere mei; quoniam in te confidit anima mea:
!!!PDT: 1580
!!!AGN: Sacred
!!!SMS-siglum: PL-Wn
!!!SMS-shelfmark: SD XVI.Qu.273
!!!SMS-shelfwork: 057 G
!!!NIFC-rismid:
!!!ONB-nifc: Melodiae na psalterz polski
**kern	**text	**kern	**text	**kern	**text	**kern	**text
*part4	*part4	*part3	*part3	*part2	*part2	*part1	*part1
*staff4	*staff4	*staff3	*staff3	*staff2	*staff2	*staff1	*staff1
*clefF4	*	*clefC4	*	*clefC3	*	*clefC1	*
*k[]	*	*k[]	*	*k[]	*	*k[]	*
*a:	*	*a:	*	*a:	*	*a:	*
*M2/1	*	*M2/1	*	*M2/1	*	*M2/1	*
*met(C|)	*	*met(C|)	*	*met(C|)	*	*met(C|)	*
*I"BASSUS.	*	*I"TENOR.	*	*I"ALTUS.	*	*I"CANTUS.	*
=1-	=1	=1-	=1	=1-	=1	=1-	=1
0E\	SMi-	0E/	SMi-	0B/	Smi-	0e/	SMi-
=2-	=2	=2-	=2	=2-	=2	=2-	=2
2E\	-łuy	2G/	-łuy	2e\	-łuy	2b\	-łuy
2E\	sye	2G/	sye	2e\	sye,	2b\	sye,
1.AA/	pá-	1.A\	pá-	2.c/	pá-	1.cc\	pá-
.	.	.	.	4B/	-nie,	.	.
=3-	=3	=3-	=3	=3-	=3	=3-	=3
.	.	.	.	4c\	cza-	.	.
.	.	.	.	4d\	.	.	.
2GG#X/	-nie	2B\	-nie	1e\	-su	2b\	-nie,
4AA/	czá-	1c\	czá-	.	.	2a\	czá-
4BB/	-su	.	.	.	.	.	.
4C/	me-	.	.	2e\	me-	2a\	-su
4D/	-go	.	.	.	.	.	.
=4-	=4	=4-	=4	=4-	=4	=4-	=4
2E\	nie-	2B\	-su	2e\	-go	1g#X\	me-
2E\	-po	2B\	me-	2e\	nie-	.	.
2F\	-ko	2A/	-go	2c/	-po-	2.a\	-go
2D/	-iá,	4d\	nie-	2f\	-ko-	.	.
.	.	4c\	.	.	.	4f#X/	nie-
=5-	=5	=5-	=5	=5-	=5	=5-	=5
1E\	W to-	4B\	-po-	4e\	.	4g#X/	-po-
.	.	4A\	.	4f\	.	2a\	-ko-
.	.	2B\	-ko-	4e\	-já,	.	.
!	!	!	!	!	!	!LO:SIC:s=4g#:v	!
.	.	.	.	4d\	.	4gny/	-iá,
2AA/	.	2A\	-ia,	2c#X/	.	2a\	.
2A\	-bie	2c\	W to-	2A/	W to-	2e/	W to-
=6-	=6	=6-	=6	=6-	=6	=6-	=6
2c\	u-	2.e\	-bie	2A/	-bie	2e/	-bie
2B\	-fá-	.	.	2G#X/	u-	2e/	u-
.	.	4d\	u-	.	.	.	.
2A\	-nié	2c\	-fá-	2A/	-fá-	2fny/	-fá-
2G#X\	kłá-	2B\	-nié	2e\	-nié	2e/	-nié
=7-	=7	=7-	=7	=7-	=7	=7-	=7
1A\	-dźie	2c\	kłá-	2.cny\	kła-	2.e/	kła-
.	.	2A/	-dźie	.	.	.	.
.	.	.	.	4d\	-dźie	4f/	-dźie
!!LO:PB:g=original
2E\	du-	2B\	du-	2e\	du-	4g/	du-
.	.	.	.	.	.	4f/	.
2Gny\	-szá	2B\	-szá	2Gny/	-szá	1e/	-szá
=8-	=8	=8-	=8	=8-	=8	=8-	=8
2F\	.	1A\	mo-	1A/	mo-	.	.
2F\	mo-	.	.	.	.	2d/	mo-
!	!	!	!	!	!	!LO:N:vis=4	!
2E\	-iá.	2G#X/	-iá.	2B/	-(iá.)	2e/	-iá.
2E\	Nie-	2B\	Nie-	2e\	Nie-	2b\	Nie-
=9-	=9	=9-	=9	=9-	=9	=9-	=9
2D/	-(chaj)	2d\	-(chaj)	2f\	-(chaj)	2b\	-ch(aj)
2F\	u-	2A/	u-	4c\	u-	2a\	u-
.	.	.	.	4d\	.	.	.
1E\	-lę-	1c\	-lę-	1e\	-lę-	2.g\	-lę-
.	.	.	.	.	.	4f/	-gę
=10-	=10	=10-	=10	=10-	=10	=10-	=10
2E\	-gę	2B\	-gę	2e\	-gę	4g\	w pe-
.	.	.	.	.	.	4a\	.
2E\	w pe-	2e\	w pe-	2g\	w pe-	2b\	-w(néy)
4A\	-(wnéy)	4c\	-w(néy)	2e\	-wnéy	1a\	twych
4G\	.	4B\	.	.	.	.	.
4A\	twych	4c\	twych	2e\	twych	.	.
4B\	.	4d\	skrzy-	.	.	.	.
=11-	=11	=11-	=11	=11-	=11	=11-	=11
2c\	.	1e\	-(deł)	1c\	.	2.g\	skrzy-
2C/	.	.	.	.	.	.	.
.	.	.	.	.	.	4a\	-(deł)
2G\	skrzy-	2d\	za-	2g\	.	2b\	zá-
2A\	.	2c\	-sło-	2e\	skrzy-	1cc\	-sło-
=12-	=12	=12-	=12	=12-	=12	=12-	=12
2F\	-(deł)	1d\	-(nie.)	2a\	-(deł)	.	.
2G\	za-	.	.	4g\	za-	2b\	-(nie.)
.	.	.	.	4f\	-sło-	.	.
2A\	-sło-	2c\	Aż	2e\	-(nie.)	2.cc\	Aż
2.AA/	-(nie.)	2c\	by-	2e\	Aż	.	.
.	.	.	.	.	.	4b\	.
=13-	=13	=13-	=13	=13-	=13	=13-	=13
.	.	2c\	-stra	2.e\	by-	2a\	by-
4BB/	Aż	.	.	.	.	.	.
2C/	.	2Gny/	.	.	.	2g\	-(stra)
.	.	.	.	4d\	-(stra)	.	.
2FF/	by-	2A/	zá-	2c/	zá-	2f/	za-
2GGny/	-stra	2G/	-pál-	2B/	-pál-	1e/	-pál-
=14-	=14	=14-	=14	=14-	=14	=14-	=14
4AA/	.	1F/	-czy-	1A/	-czy-	.	.
4GG/	zá-	.	.	.	.	.	.
4AA/	-pál-	.	.	.	.	2d/	-czy-
4BB/	-czy-	.	.	.	.	.	.
!!LO:PB:g=original
2C/	-wość	2E/	-wość	2G/	-wość	2.e/	-wość,
2AA/	.	2A/	.	4c/	.	.	.
.	.	.	.	4B/	.	4d/	y
=15-	=15	=15-	=15	=15-	=15	=15-	=15
4E\	y	2G/	y	4c/	y	4e/	nie-
4D\	nie-	.	.	4d\	.	4f/	.
4C/	.	2E/	nie-	4e\	nie-	2g/	-chęć
4BB/	.	.	.	4d\	.	.	.
4AA/	-chęć	2A/	-chęć	2c/	-chęć	2f/	o-
4BB/	.	.	.	.	.	.	.
2C/	o-	2G/	o-	2c/	o-	1e/	-pło-
=16-	=16	=16-	=16	=16-	=16	=16-	=16
1D\	-pło-	1F/	-pło-	2.A/	-pło-	.	.
.	.	.	.	.	.	2d/	-nie.
.	.	.	.	4B/	.	.	.
!	!	!	!	!LO:TX:a:t=P:trudność z poprawnym zakodowaniem  rytmu:problem	!	!	!
*	*	*	*	*	*	*000/left	*
!	!	!LO:N:vis=000	!	!	!	!LO:N:vis=000	!
1AA/	-nie.	1E/	-nie.	1c\	-nie.	1e/	.
=17-	=17	=17-	=17	=17-	=17	=17-	=17
*000/left	*	*	*	*	*	*	*
000EE/	.	000	.	000B/	.	000	.
==	==	==	==	==	==	==	==
*-	*-	*-	*-	*-	*-	*-	*-
!!!RDF**kern: l = terminal long
!!!system-decoration: s1,s2,s3,s4
!!!RDF**kern: > = above
!!!ENC: Marta Lawrence
!!!END: 2020-02-12
!!!URL-scan: https://polona.pl/item/melodiae-na-psalterz-polski,Nzk3MTM4ODQ/143 Scan on Polona
!!!IIIF: https://polona.pl/iiif/item/Nzk3MTM4ODQ/manifest.json
